X:96
T:The Painters of Millis
R:reel
C: 2000, 2010 L.E. McCullough  
M:4/4
L:1/8
K:G
z6 GA|:B~G3 A~E3|DEED ~G3A|~B3d eged|DGBG A2GA|
B~G3 A~E3|DEED ~G3A|B~g3 edge|dBAF G2GA:|
|:~B3d ed (3B^cd|gedB AGEG|D~G3 DGBd|(3efg dB ~A3d|
~B3d ed (3B^cd|g~B3 ABGA|B~g3 edge|dBAF G2GA:|


